!!!COM: Palestrina, Giovanni Perluigi da
!!!OPR: Missa In semidupl. maj. (I)
!!!OMD: Gloria
!!!OTL: Glorificamus te
**kern	**kern	**kern	**kern	**kern
*Ibass	*Itenor	*Itenor	*Icalto	*Icant
!Bassus	!Tenor 2	!Tenor 1	!Altus	!Cantus
*clefF4	*clefGv2	*clefGv2	*clefG2	*clefG2
*k[b-]	*k[b-]	*k[b-]	*k[b-]	*k[b-]
*F:ion	*F:ion	*F:ion	*F:ion	*F:ion
*M4/2	*M4/2	*M4/2	*M4/2	*M4/2
=23	=23	=23	=23	=23
0r	0r	0r	1g	0r
.	.	.	1e	.
=24	=24	=24	=24	=24
0r	1r	0r	1f	0r
.	1c	.	[1e	.
=25	=25	=25	=25	=25
0r	1A	0r	2e]	0r
.	.	.	4d	.
.	.	.	4c	.
.	1B-	.	2d	.
.	.	.	2d	.
=26	=26	=26	=26	=26
0r	1.A	0r	4c	1cc
.	.	.	4B-	.
.	.	.	4A	.
.	.	.	4G	.
.	.	.	2F	1a
.	4G	.	2f	.
.	4F	.	.	.
=27	=27	=27	=27	=27
1r	2G	0r	2d	1b-
.	2G	.	2e	.
1F	2F	.	2f	[1a
.	[2A	.	2c	.
=28	=28	=28	=28	=28
1D	2A]	0r	2.d	2a]
.	1B-	.	.	4g
.	.	.	4c	4f
1E-	.	.	2B-	2g
.	2G	.	2c	2g
=29	=29	=29	=29	=29
1.D	1A	0r	0d	1.f
.	1B-	.	.	.
4C	.	.	.	4e
4BB-	.	.	.	4d
=30	=30	=30	=30	=30
0C	2A	1r	2r	2e
.	4G	.	1c	1f
.	4F	.	.	.
.	1G	1c	.	.
.	.	.	2G	2e
=31	=31	=31	=31	=31
1FF	2.F	1A	1c	1f
.	4E	.	.	.
2.BB-	1D	1B-	1d	2r
.	.	.	.	2d
4C	.	.	.	.
=32	=32	=32	=32	=32
2.D	2r	1.A	1f	4d
.	.	.	.	4e
.	2d	.	.	4f
4E	.	.	.	4g
1F	2c	.	[1f	2a
.	2c	4G	.	2a
.	.	4F	.	.
=33	=33	=33	=33	=33
0C	1c	1G	2f]	1cc
.	.	.	4e	.
.	.	.	4d	.
.	1c	1G	1e	1g
=34	=34	=34	=34	=34
[0FF	[0c	[0F	[0f	[0a
=35	=35	=35	=35	=35
0FF]	0c]	0F]	0f]	0a]
*-	*-	*-	*-	*-
!!!CDT: 1525/^1526/-1594/2/2
!!!OCY: Italia
!!!AGN: Mass (Paraphrase)
!!!AST: renaissance, vocal
!!!ASW: Gregorian Mass
!!!PWK: Masses, Book Mantuan II
!!!RNB: Cadence finals: C
!!!YOR: Le Opere Complete, v. 19, p. 129
!!!YOO: Rome, Italy: Fratelli Scalera
!!!END: 1992//
!!!EED: John Miller
!!!YEC: Copyright 2000, John Miller
!!!YEN: United States of America
!!!YEM: Rights to all derivative electronic formats reserved.
!!!YEM: Refer to licensing agreement for further details.
!!!YEM: This file must be accompanied by the licensing agreement.
!!!YEM: A copy of the licensing agreement may be found at http://www.music-cog.ohio-state.edu/HumdrumDatabases/Palestrina/license.txt
!!!EMD: converted to Humdrum by Bret Aarden
